assets/logos/logomark-orangebody-greyplanets.svg

<svg width="39" height="51" viewBox="0 0 39 51" version="2.0" xmlns="http://www.w3.org/2000/svg" xmlns:xlink="http://www.w3.org/1999/xlink" xmlns:figma="http://www.figma.com/figma/ns">
<title>logo-5.svg</title>
<desc>Created using Figma 0.90</desc>
<g id="Canvas" transform="translate(-1638 -2281)" figma:type="canvas">
<g id="logo" style="mix-blend-mode:normal;" figma:type="group">
<g id="g" style="mix-blend-mode:normal;" figma:type="group">
<g id="path" style="mix-blend-mode:normal;" figma:type="group">
<g id="path7 fill" style="mix-blend-mode:normal;" figma:type="vector">
<use xlink:href="#path0_fill" transform="translate(1669.3 2281.31)" fill="#767677" style="mix-blend-mode:normal;"/>
</g>
</g>
<g id="path" style="mix-blend-mode:normal;" figma:type="group">
<g id="path8 fill" style="mix-blend-mode:normal;" figma:type="vector">
<use xlink:href="#path1_fill" transform="translate(1639.74 2311.98)" fill="#F37726" style="mix-blend-mode:normal;"/>
</g>
</g>
<g id="path" style="mix-blend-mode:normal;" figma:type="group">
<g id="path9 fill" style="mix-blend-mode:normal;" figma:type="vector">
<use xlink:href="#path2_fill" transform="translate(1639.73 2285.48)" fill="#F37726" style="mix-blend-mode:normal;"/>
</g>
</g>
<g id="path" style="mix-blend-mode:normal;" figma:type="group">
<g id="path10 fill" style="mix-blend-mode:normal;" figma:type="vector">
<use xlink:href="#path3_fill" transform="translate(1639.8 2323.81)" fill="#989798" style="mix-blend-mode:normal;"/>
</g>
</g>
<g id="path" style="mix-blend-mode:normal;" figma:type="group">
<g id="path11 fill" style="mix-blend-mode:normal;" figma:type="vector">
<use xlink:href="#path4_fill" transform="translate(1638.36 2286.06)" fill="#6F7070" style="mix-blend-mode:normal;"/>
</g>
</g>
</g>
</g>
</g>
<defs>
<path id="path0_fill" d="M 5.89353 2.844C 5.91889 3.43165 5.77085 4.01367 5.46815 4.51645C 5.16545 5.01922 4.72168 5.42015 4.19299 5.66851C 3.6643 5.91688 3.07444 6.00151 2.49805 5.91171C 1.92166 5.8219 1.38463 5.5617 0.954898 5.16401C 0.52517 4.76633 0.222056 4.24903 0.0839037 3.67757C -0.0542483 3.10611 -0.02123 2.50617 0.178781 1.95364C 0.378793 1.4011 0.736809 0.920817 1.20754 0.573538C 1.67826 0.226259 2.24055 0.0275919 2.82326 0.00267229C 3.60389 -0.0307115 4.36573 0.249789 4.94142 0.782551C 5.51711 1.31531 5.85956 2.05676 5.89353 2.844Z"/>
<path id="path1_fill" d="M 18.2646 7.13411C 10.4145 7.13411 3.55872 4.2576 0 0C 1.32539 3.8204 3.79556 7.13081 7.0686 9.47303C 10.3417 11.8152 14.2557 13.0734 18.269 13.0734C 22.2823 13.0734 26.1963 11.8152 29.4694 9.47303C 32.7424 7.13081 35.2126 3.8204 36.538 0C 32.9705 4.2576 26.1148 7.13411 18.2646 7.13411Z"/>
<path id="path2_fill" d="M 18.2733 5.93931C 26.1235 5.93931 32.9793 8.81583 36.538 13.0734C 35.2126 9.25303 32.7424 5.94262 29.4694 3.6004C 26.1963 1.25818 22.2823 0 18.269 0C 14.2557 0 10.3417 1.25818 7.0686 3.6004C 3.79556 5.94262 1.32539 9.25303 0 13.0734C 3.56745 8.82463 10.4232 5.93931 18.2733 5.93931Z"/>
<path id="path3_fill" d="M 7.42789 3.58338C 7.46008 4.3243 7.27355 5.05819 6.89193 5.69213C 6.51031 6.32607 5.95075 6.83156 5.28411 7.1446C 4.61747 7.45763 3.87371 7.56414 3.14702 7.45063C 2.42032 7.33712 1.74336 7.0087 1.20184 6.50695C 0.660328 6.0052 0.27861 5.35268 0.105017 4.63202C -0.0685757 3.91135 -0.0262361 3.15494 0.226675 2.45856C 0.479587 1.76217 0.931697 1.15713 1.52576 0.720033C 2.11983 0.282935 2.82914 0.0334395 3.56389 0.00313344C 4.54667 -0.0374033 5.50529 0.316706 6.22961 0.987835C 6.95393 1.65896 7.38484 2.59235 7.42789 3.58338L 7.42789 3.58338Z"/>
<path id="path4_fill" d="M 2.27471 4.39629C 1.84363 4.41508 1.41671 4.30445 1.04799 4.07843C 0.679268 3.8524 0.385328 3.52114 0.203371 3.12656C 0.0214136 2.73198 -0.0403798 2.29183 0.0258116 1.86181C 0.0920031 1.4318 0.283204 1.03126 0.575213 0.710883C 0.867222 0.39051 1.24691 0.164708 1.66622 0.0620592C 2.08553 -0.0405897 2.52561 -0.0154714 2.93076 0.134235C 3.33591 0.283941 3.68792 0.551505 3.94222 0.90306C 4.19652 1.25462 4.34169 1.67436 4.35935 2.10916C 4.38299 2.69107 4.17678 3.25869 3.78597 3.68746C 3.39516 4.11624 2.85166 4.37116 2.27471 4.39629L 2.27471 4.39629Z"/>
</defs>
</svg>

<svg xmlns="http://www.w3.org/2000/svg" xmlns:xlink="http://www.w3.org/1999/xlink" width="39" height="51" xmlns:v="https://vecta.io/nano"><g transform="translate(-1638 -2281)"><use xlink:href="#A" fill="#767677" x="1669.3" y="2281.31"/><g fill="#f37726"><use xlink:href="#B" x="1639.74" y="2311.98"/><use xlink:href="#C" x="1639.73" y="2285.48"/></g><use xlink:href="#D" fill="#989798" x="1639.8" y="2323.81"/><use xlink:href="#E" fill="#6f7070" x="1638.36" y="2286.06"/></g><defs><path id="A" d="M5.894 2.844c.025.588-.123 1.17-.425 1.672s-.746.904-1.275 1.152-1.119.333-1.695.243a2.94 2.94 0 0 1-1.543-.748 2.98 2.98 0 0 1-.871-1.486c-.138-.571-.105-1.171.095-1.724A2.97 2.97 0 0 1 1.208.574 2.93 2.93 0 0 1 2.823.003c.781-.033 1.542.247 2.118.78s.918 1.274.952 2.061z"/><path id="B" d="M18.265 7.134C10.415 7.134 3.559 4.258 0 0c1.325 3.82 3.796 7.131 7.069 9.473s7.187 3.6 11.2 3.6 7.927-1.258 11.2-3.6S35.213 3.82 36.538 0c-3.567 4.258-10.423 7.134-18.273 7.134z"/><path id="C" d="M18.273 5.939c7.85 0 14.706 2.877 18.265 7.134-1.325-3.82-3.796-7.131-7.069-9.473S22.282 0 18.269 0s-7.927 1.258-11.2 3.6S1.325 9.253 0 13.073c3.567-4.249 10.423-7.134 18.273-7.134z"/><path id="D" d="M7.428 3.583a3.77 3.77 0 0 1-.536 2.109c-.382.634-.941 1.139-1.608 1.452s-1.41.42-2.137.306-1.404-.442-1.945-.944S.279 5.353.105 4.632a3.78 3.78 0 0 1 .122-2.173C.48 1.762.932 1.157 1.526.72S2.829.033 3.564.003c.983-.041 1.941.314 2.666.985a3.76 3.76 0 0 1 1.198 2.596h0z"/><path id="E" d="M2.275 4.396c-.431.019-.858-.092-1.227-.318s-.663-.557-.845-.952-.244-.835-.178-1.265.257-.831.549-1.151.672-.546 1.091-.649.859-.078 1.265.072.757.417 1.011.769a2.21 2.21 0 0 1-.156 2.784c-.391.429-.934.684-1.511.709h0z"/></defs></svg>
